X:2200
T:Fin Visan
S:Hamburska
Z:[[http://www.bluerose.karenlmyers.org/IncipitsPolskaNarke4.html|Karen Myers (#2200)]]
Z:Upptecknad 12/2003
M:3/4
L:1/8
R:Polska
O:Närke
K:D
D2 DF E>G | F2 FA G>G | F2 FG E>F | D2 ECA,2 |
D2 E2 F2 | G2 GA F>G | ECD4 | A2 d2 B2 | A2 AB F>G | ECD4 |]
